**kern
*staff1
!!pagebreak:original
*I"P1
*clefG2
*k[]
*M2/4
8cc\L
8b\J
=1
4a/
8cc\L
8b\J
=2
4a/
8cc\L
8b\J
=3
8a\L
8dd\J
8a/L
8b/J
=4
8cc\L
8b\J
4a/
=5
8cc\L
8b\J
8cc\L
8dd\J
=6
8ee\L
8ff#\J
8gg\L
8ff#\J
=7
4ee\
=
*-
